X: 41060
T: Trip To Nenagh, The
R: reel
M: 4/4
K: Dmixolydian
|:dcAG FD~D2|A,DFA dcAG|Ad~d2 A=fed|c2Gc EcGc|
dcAG FD~D2|A,DFA dcAG|Ad~d2 AdFd|GE^CE D2FA:|
|:~d2df adfa|geed ^cAce|d/c/dAG FDDC|EGAB =cecB|
A2de fded|^cdef g2e/f/g|a2ea ^caec|1 dcAG FAD2:|2 dcAG FAEA|D8||

